!!!ONB: MCCC : IFS0589_03 : Extracted Monophonic Melody
!!!COM: Schubert, Franz
!!!OPR: Piano Sonata in A minor
!!!OMV: 3
!!!SCT: D.845 (published as Op.42)
!!!ODT: 1825///
**kern
*staff1
*clefG2
*k[]
*a:
*M3/4
8a
8a
=1
2b
8a
8a
=2
2b
8a
8a
=3
4b
4cc
4b
=4
4cc
2ee
=5
4cc
4r
8cc
8cc
=6
2dd
8cc
8cc
=7
2dd
8cc
8cc
=8
2dd
8ee
8ee
=9
8gg
8ff
4ee
4dd
=10
4cc
2gg
=11
4ee
4cc
4a
=12
4f
2aa
=13
2.ddd[
=14
4.ddd]
8ccc
8bb
8aa
=15
4gg
4.ggg
8eee
=16
8eee
8ccc
8ccc
8aa
8aa
8ff
=17
4ff
2gg#[
=18
2.gg#]
=19
8dd
8ee
8ff
8ee
8dd
8ee
=20
2.r
=21
8gg
8ff
8ff
8ee
8ee
8dd
=22
2cc
8gg
8gg
=23
2g
8gg
8gg
=24
2a
8gg
8gg
=25
8b
8gg
8cc
8gg
8dd
8gg
=26
8ee
8gg
8dd
8gg#
8cc
8aa
=27
8aa
8ddd
8bb
8eee
8bb
8ggg
=28
*M2/4
4ccc
4r
=29
*M1/4
8a
8a
=30
*M3/4
2b
8a
8a
=31
2b
8a
8a
=32
4b
4cc
4b
=33
4cc
2ee
=34
4cc
4r
8cc
8cc
=35
2dd
8cc
8cc
=36
2dd
8cc
8cc
=37
2dd
8ee
8ee
=38
8gg
8ff
4ee
4dd
=39
4cc
2gg
=40
4ee
4cc
4a
=41
4f
2aa
=42
2.ddd[
=43
4.ddd]
8ccc
8bb
8aa
=44
4gg
4.ggg
8eee
=45
8eee
8ccc
8ccc
8aa
8aa
8ff
=46
4ff
2gg#[
=47
2.gg#]
=48
8dd
8ee
8ff
8ee
8dd
8ee
=49
2.r
=50
8gg
8ff
8ff
8ee
8ee
8dd
=51
2cc
8gg
8gg
=52
2g
8gg
8gg
=53
2a
8gg
8gg
=54
8b
8gg
8cc
8gg
8dd
8gg
=55
8ee
8gg
8dd
8gg#
8cc
8aa
=56
8aa
8ddd
8bb
8eee
8bb
8ggg
=57
*M2/4
4ccc
4r
=58
*M1/4
8cc
8cc
=59
*M3/4
2cc#
8cc
8cc
=60
2b-
8g#
8g#
=61
4g
4g
4g#
=62
2g
8c
8c
=63
2c#
8c
8c
=64
2B-
8G#
8G#
=65
4G
4G
4G#
=66
*M2/4
2G
=67
*M1/4
4r
=68
*M3/4
4r
2ee-[
=69
4ee-]
2ee-[
=70
4ee-]
4ee-
4ee-
=71
4ee-
4gg
4bb-
=72
4ccc#
4r
4r
=73
4r
4e-
4e-[
=74
2.e-]
=75
2.e-
=76
4cc#
4cc#
4b#
=77
2cc#
4cc
=78
2ff
4ee-
=79
2ff
4ee-
=80
4ff
4ff
4gg
=81
2gg#
4ff##
=82
2gg#
4ff##
=83
4gg#
4gg#
4bb-
=84
4ccc
4ccc#
4eee-
=85
4fff
4r
8g#
8g#
=86
2.b
=87
2.b[
=88
4b]
4r
4r
=89
4r
8e-
8e-
4ee-[
=90
4ee-]
8e-
8e-
4ee-[
=91
4ee-]
4ee-
4gg
=92
4gg#
4aa#
4bb
=93
4ccc#
4ddd#
4eee
=94
2eee-
4r
=95
4r
8e-
8e-
4ee-[
=96
4ee-]
8e-
8e-
4ee-[
=97
4ee-]
4ee-
4ee-
=98
4ee
4ff#
4gg
=99
4aa
4bb
4ccc
=100
2bb
8ee
8ee
=101
2f#
8ee
8ee
=102
2b
4bb
=103
8bb
8aa
8aa
8bb
8bb
8ccc
=104
2bb
8ee
8ee
=105
2f#
8ee
8ee
=106
2b
8ee
8ee
=107
2f#
8ee
8ee
=108
2b
8g
8b
=109
8b
8a
8a
8g
8g
8f#
=110
4e
4r
8b
8b
=111
2cc
8b
8b
=112
2ff
8ee
8ee
=113
4dd
4dd
4cc
=114
2b
8B
8B
=115
2c
8B
8B
=116
2f
8e
8e
=117
4d
4d
4c
=118
2B
8c
8c
=119
2B
8c
8c
=120
2B
8c
8c
=121
2B
8c
8c
=122
2B
8c
8c
=123
2B
8a
8a
=124
2b
8a
8a
=125
2b
8a
8a
=126
4b
4cc
4b
=127
4cc
2ee
=128
4cc
4r
8a
8a
=129
2b
8a
8a
=130
2b
8a
8a
=131
2b
8cc#
8cc#
=132
8ee
8dd
4cc#
4b
=133
4a
2ee
=134
4cc#
4a
4f#
=135
4d
2ff#
=136
2.bb[
=137
4.bb]
8aa
8gg#
8ff#
=138
4ee
4.eee
8ccc#
=139
8ccc#
8aa
8aa
8ff#
8ff#
8dd
=140
4dd
2ff[
=141
2.ff]
=142
2.ee
=143
2ee[
4ee]
=144
8ee
8dd
8dd
8cc#
8cc#
8b
=145
4a
4r
8ee
8ee
=146
2e
8ee
8ee
=147
2f#
8ee
8ee
=148
8g#
8ee
8a
8ee
8b
8ee
=149
8cc#
8ee
8b
8ff
8a
8ff#
=150
8ff#
8bb
8gg#
8ccc#
8gg#
8eee
=151
4aa
4r
8ee
8ee
=152
2ee
8ee
8ee
=153
2ee
8gg#
8gg#
=154
2aa
8bb
8bb
=155
2ccc#
8eee
8eee
=156
4eee
4eee
4ggg#
=157
4aaa
4r
8ee
8ee
=158
2ff
8ee
8ee
=159
2dd
8cc
8cc
=160
4b
4b
4cc
=161
4b
4r
8cc
8cc
=162
2cc#
8cc
8cc
=163
2b-
8g#
8g#
=164
4g
4g
4g#
=165
*M2/4
4g
4r
=166
*M1/4
4r
=167
*M3/4
4r
2ee-[
=168
4ee-]
2ee-[
=169
4ee-]
4ee-
4ee-
=170
4ee-
4gg
4bb-
=171
4ccc#
4r
4r
=172
4r
4e-
4e-[
=173
2.e-]
=174
2.e-
=175
4cc#
4cc#
4b#
=176
2cc#
4cc
=177
2ff
4ee-
=178
2ff
4ee-
=179
4ff
4ff
4gg
=180
2gg#
4ff##
=181
2gg#
4ff##
=182
4gg#
4gg#
4bb-
=183
4ccc
4ccc#
4eee-
=184
4fff
4r
8g#
8g#
=185
2.b
=186
2.b[
=187
4b]
4r
4r
=188
4r
8e-
8e-
4ee-[
=189
4ee-]
8e-
8e-
4ee-[
=190
4ee-]
4ee-
4gg
=191
4gg#
4aa#
4bb
=192
4ccc#
4ddd#
4eee
=193
2eee-
4r
=194
4r
8e-
8e-
4ee-[
=195
4ee-]
8e-
8e-
4ee-[
=196
4ee-]
4ee-
4ee-
=197
4ee
4ff#
4gg
=198
4aa
4bb
4ccc
=199
2bb
8ee
8ee
=200
2f#
8ee
8ee
=201
2b
4bb
=202
8bb
8aa
8aa
8bb
8bb
8ccc
=203
2bb
8ee
8ee
=204
2f#
8ee
8ee
=205
2b
8ee
8ee
=206
2f#
8ee
8ee
=207
2b
8g
8b
=208
8b
8a
8a
8g
8g
8f#
=209
4e
4r
8b
8b
=210
2cc
8b
8b
=211
2ff
8ee
8ee
=212
4dd
4dd
4cc
=213
2b
8B
8B
=214
2c
8B
8B
=215
2f
8e
8e
=216
4d
4d
4c
=217
2B
8c
8c
=218
2B
8c
8c
=219
2B
8c
8c
=220
2B
8c
8c
=221
2B
8c
8c
=222
2B
8a
8a
=223
2b
8a
8a
=224
2b
8a
8a
=225
4b
4cc
4b
=226
4cc
2ee
=227
4cc
4r
8a
8a
=228
2b
8a
8a
=229
2b
8a
8a
=230
2b
8cc#
8cc#
=231
8ee
8dd
4cc#
4b
=232
4a
2ee
=233
4cc#
4a
4f#
=234
4d
2ff#
=235
2.bb[
=236
4.bb]
8aa
8gg#
8ff#
=237
4ee
4.eee
8ccc#
=238
8ccc#
8aa
8aa
8ff#
8ff#
8dd
=239
4dd
2ff[
=240
2.ff]
=241
2.ee
=242
2ee[
4ee]
=243
8ee
8dd
8dd
8cc#
8cc#
8b
=244
4a
4r
8ee
8ee
=245
2e
8ee
8ee
=246
2f#
8ee
8ee
=247
8g#
8ee
8a
8ee
8b
8ee
=248
8cc#
8ee
8b
8ff
8a
8ff#
=249
8ff#
8bb
8gg#
8ccc#
8gg#
8eee
=250
4aa
4r
8ee
8ee
=251
2ee
8ee
8ee
=252
2ee
8gg#
8gg#
=253
2aa
8bb
8bb
=254
2ccc#
8eee
8eee
=255
4eee
4eee
4ggg#
=256
*M4/4
4aaa
4r
2r
=257
*M3/4
2a
4cc
=258
2a
4cc
=259
2a
4cc
=260
*M2/4
2a
=261
*M1/4
4cc
=262
*M3/4
4a
4cc
4dd
=263
2ff
4a
=264
4b-
4g
4dd
=265
2cc
4gg
=266
2aa
4cc
=267
2a
4gg
=268
2aa
4cc
=269
2a
4ccc
=270
4aa
4ccc
4ddd
=271
2fff
4aa
=272
4bb-
4gg
4ddd
=273
2ccc
4ggg
=274
2aaa
4ccc
=275
2aa
4ggg
=276
2aaa
4ccc
=277
2aa
4ddd
=278
2aa
4ddd
=279
2aa
4ddd
=280
4eee
4eee
4eee
=281
*M2/4
4eee
4r
=282
*M1/4
4cc
=283
*M3/4
4a
4cc
4dd
=284
2ff
4a
=285
4b-
4g
4dd
=286
2cc
4gg
=287
2aa
4cc
=288
2a
4gg
=289
2aa
4cc
=290
2a
4ccc
=291
4aa
4ccc
4ddd
=292
2fff
4aa
=293
4bb-
4gg
4ddd
=294
2ccc
4ggg
=295
2aaa
4ccc
=296
2aa
4ggg
=297
2aaa
4ccc
=298
2aa
4ddd
=299
2aa
4ddd
=300
2aa
4ddd
=301
4eee
4eee
4eee
=302
*M2/4
4eee
4r
=303
*M1/4
4ee
=304
*M3/4
2ff
4ee
=305
2ff
4dd
=306
4ff
4ff
4cc
=307
2dd
4dd
=308
2ee-
4dd
=309
2ee-
4b-
=310
4dd
4dd
4a
=311
2b-
4b-
=312
2a
4b-
=313
2a
4b-
=314
2.a[
=315
2a]
4cc
=316
4a
4cc
4dd
=317
2ff
4a
=318
4b-
4g
4dd
=319
2cc
4ggg
=320
2aaa
4r
=321
4r
4r
4ggg
=322
2aaa
4r
=323
2.r
=324
4r
4r
4ggg
=325
2aaa
4r
=326
2.r
=327
*M2/4
2r
=328
*M1/4
4ee
=329
*M3/4
2ff
4ee
=330
2ff
4dd
=331
4ff
4ff
4cc
=332
2dd
4dd
=333
2ee-
4dd
=334
2ee-
4b-
=335
4dd
4dd
4a
=336
2b-
4b-
=337
2a
4b-
=338
2a
4b-
=339
2.a[
=340
2a]
4cc
=341
4a
4cc
4dd
=342
2ff
4a
=343
4b-
4g
4dd
=344
2cc
4ggg
=345
2aaa
4r
=346
4r
4r
4ggg
=347
2aaa
4r
=348
2.r
=349
4r
4r
4ggg
=350
2aaa
4r
=351
2.r
=352
*M2/4
2r
=353
*M1/4
8a
8a
=354
*M3/4
2b
8a
8a
=355
2b
8a
8a
=356
4b
4cc
4b
=357
4cc
2ee
=358
4cc
4r
8cc
8cc
=359
2dd
8cc
8cc
=360
2dd
8cc
8cc
=361
2dd
8ee
8ee
=362
8gg
8ff
4ee
4dd
=363
4cc
2gg
=364
4ee
4cc
4a
=365
4f
2aa
=366
2.ddd[
=367
4.ddd]
8ccc
8bb
8aa
=368
4gg
4.ggg
8eee
=369
8eee
8ccc
8ccc
8aa
8aa
8ff
=370
4ff
2gg#[
=371
2.gg#]
=372
8dd
8ee
8ff
8ee
8dd
8ee
=373
2.r
=374
8gg
8ff
8ff
8ee
8ee
8dd
=375
2cc
8gg
8gg
=376
2g
8gg
8gg
=377
2a
8gg
8gg
=378
8b
8gg
8cc
8gg
8dd
8gg
=379
8ee
8gg
8dd
8gg#
8cc
8aa
=380
8aa
8ddd
8bb
8eee
8bb
8ggg
=381
*M2/4
4ccc
4r
=382
*M1/4
8cc
8cc
=383
*M3/4
2cc#
8cc
8cc
=384
2b-
8g#
8g#
=385
4g
4g
4g#
=386
2g
8c
8c
=387
2c#
8c
8c
=388
2B-
8G#
8G#
=389
4G
4G
4G#
=390
*M2/4
2G
=391
*M1/4
4r
=392
*M3/4
4r
2ee-[
=393
4ee-]
2ee-[
=394
4ee-]
4ee-
4ee-
=395
4ee-
4gg
4bb-
=396
4ccc#
4r
4r
=397
4r
4e-
4e-[
=398
2.e-]
=399
2.e-
=400
4cc#
4cc#
4b#
=401
2cc#
4cc
=402
2ff
4ee-
=403
2ff
4ee-
=404
4ff
4ff
4gg
=405
2gg#
4ff##
=406
2gg#
4ff##
=407
4gg#
4gg#
4bb-
=408
4ccc
4ccc#
4eee-
=409
4fff
4r
8g#
8g#
=410
2.b
=411
2.b[
=412
4b]
4r
4r
=413
4r
8e-
8e-
4ee-[
=414
4ee-]
8e-
8e-
4ee-[
=415
4ee-]
4ee-
4gg
=416
4gg#
4aa#
4bb
=417
4ccc#
4ddd#
4eee
=418
2eee-
4r
=419
4r
8e-
8e-
4ee-[
=420
4ee-]
8e-
8e-
4ee-[
=421
4ee-]
4ee-
4ee-
=422
4ee
4ff#
4gg
=423
4aa
4bb
4ccc
=424
2bb
8ee
8ee
=425
2f#
8ee
8ee
=426
2b
4bb
=427
8bb
8aa
8aa
8bb
8bb
8ccc
=428
2bb
8ee
8ee
=429
2f#
8ee
8ee
=430
2b
8ee
8ee
=431
2f#
8ee
8ee
=432
2b
8g
8b
=433
8b
8a
8a
8g
8g
8f#
=434
4e
4r
8b
8b
=435
2cc
8b
8b
=436
2ff
8ee
8ee
=437
4dd
4dd
4cc
=438
2b
8B
8B
=439
2c
8B
8B
=440
2f
8e
8e
=441
4d
4d
4c
=442
2B
8c
8c
=443
2B
8c
8c
=444
2B
8c
8c
=445
2B
8c
8c
=446
2B
8c
8c
=447
2B
8a
8a
=448
2b
8a
8a
=449
2b
8a
8a
=450
4b
4cc
4b
=451
4cc
2ee
=452
4cc
4r
8a
8a
=453
2b
8a
8a
=454
2b
8a
8a
=455
2b
8cc#
8cc#
=456
8ee
8dd
4cc#
4b
=457
4a
2ee
=458
4cc#
4a
4f#
=459
4d
2ff#
=460
2.bb[
=461
4.bb]
8aa
8gg#
8ff#
=462
4ee
4.eee
8ccc#
=463
8ccc#
8aa
8aa
8ff#
8ff#
8dd
=464
4dd
2ff[
=465
2.ff]
=466
2.ee
=467
2ee[
4ee]
=468
8ee
8dd
8dd
8cc#
8cc#
8b
=469
4a
4r
8ee
8ee
=470
2e
8ee
8ee
=471
2f#
8ee
8ee
=472
8g#
8ee
8a
8ee
8b
8ee
=473
8cc#
8ee
8b
8ff
8a
8ff#
=474
8ff#
8bb
8gg#
8ccc#
8gg#
8eee
=475
4aa
4r
8ee
8ee
=476
2ee
8ee
8ee
=477
2ee
8gg#
8gg#
=478
2aa
8bb
8bb
=479
2ccc#
8eee
8eee
=480
4eee
4eee
4ggg#
=481
4aaa
4r
4r
==
*-
